images/icon_instagram.svg

<svg width="32" height="32" viewBox="0 0 32 32" fill="none" xmlns="http://www.w3.org/2000/svg">
<circle cx="16" cy="16" r="16" fill="#E33A5E"/>
<path d="M15.999 11.3769C14.7726 11.3769 13.5965 11.8641 12.7293 12.7312C11.8621 13.5984 11.375 14.7745 11.375 16.0009C11.375 17.2272 11.8621 18.4034 12.7293 19.2705C13.5965 20.1377 14.7726 20.6249 15.999 20.6249C17.2253 20.6249 18.4014 20.1377 19.2686 19.2705C20.1358 18.4034 20.623 17.2272 20.623 16.0009C20.623 14.7745 20.1358 13.5984 19.2686 12.7312C18.4014 11.8641 17.2253 11.3769 15.999 11.3769ZM15.999 19.0039C15.2022 19.0039 14.4382 18.6874 13.8748 18.124C13.3114 17.5607 12.995 16.7966 12.995 15.9999C12.995 15.2032 13.3114 14.4391 13.8748 13.8757C14.4382 13.3124 15.2022 12.9959 15.999 12.9959C16.7957 12.9959 17.5597 13.3124 18.1231 13.8757C18.6865 14.4391 19.003 15.2032 19.003 15.9999C19.003 16.7966 18.6865 17.5607 18.1231 18.124C17.5597 18.6874 16.7957 19.0039 15.999 19.0039Z" fill="white"/>
<path d="M20.806 12.2849C21.4013 12.2849 21.884 11.8022 21.884 11.2069C21.884 10.6115 21.4013 10.1289 20.806 10.1289C20.2106 10.1289 19.728 10.6115 19.728 11.2069C19.728 11.8022 20.2106 12.2849 20.806 12.2849Z" fill="white"/>
<path d="M24.533 10.1109C24.3015 9.51306 23.9477 8.97017 23.4943 8.51694C23.0409 8.06372 22.4979 7.71015 21.9 7.47888C21.2003 7.21624 20.4611 7.07422 19.714 7.05888C18.751 7.01688 18.446 7.00488 16.004 7.00488C13.562 7.00488 13.249 7.00488 12.294 7.05888C11.5473 7.07344 10.8087 7.21548 10.11 7.47888C9.51189 7.70988 8.96872 8.06335 8.51529 8.51661C8.06186 8.96987 7.70818 9.51291 7.47695 10.1109C7.21426 10.8105 7.07257 11.5497 7.05795 12.2969C7.01495 13.2589 7.00195 13.5639 7.00195 16.0069C7.00195 18.4489 7.00195 18.7599 7.05795 19.7169C7.07295 20.4649 7.21395 21.2029 7.47695 21.9039C7.70883 22.5016 8.06285 23.0445 8.51639 23.4977C8.96993 23.9509 9.51302 24.3045 10.111 24.5359C10.8084 24.8091 11.5473 24.9613 12.296 24.9859C13.259 25.0279 13.564 25.0409 16.006 25.0409C18.448 25.0409 18.761 25.0409 19.716 24.9859C20.4631 24.9707 21.2022 24.829 21.902 24.5669C22.4997 24.3351 23.0426 23.9812 23.4959 23.5279C23.9493 23.0745 24.3031 22.5316 24.535 21.9339C24.798 21.2339 24.939 20.4959 24.954 19.7479C24.997 18.7859 25.01 18.4809 25.01 16.0379C25.01 13.5949 25.01 13.2849 24.954 12.3279C24.9423 11.5702 24.7999 10.8201 24.533 10.1109ZM23.315 19.6429C23.3085 20.2192 23.2033 20.7901 23.004 21.3309C22.8538 21.7198 22.6239 22.0729 22.329 22.3676C22.0342 22.6622 21.6809 22.8919 21.292 23.0419C20.7572 23.2403 20.1923 23.3455 19.622 23.3529C18.672 23.3969 18.404 23.4079 15.968 23.4079C13.53 23.4079 13.281 23.4079 12.313 23.3529C11.7429 23.3459 11.1783 23.2407 10.644 23.0419C10.2536 22.8929 9.89895 22.6636 9.60284 22.3688C9.30673 22.0741 9.07579 21.7205 8.92495 21.3309C8.7284 20.7959 8.62326 20.2317 8.61395 19.6619C8.57095 18.7119 8.56095 18.4439 8.56095 16.0079C8.56095 13.5709 8.56095 13.3219 8.61395 12.3529C8.62042 11.7769 8.72561 11.2063 8.92495 10.6659C9.22995 9.87688 9.85495 9.25588 10.644 8.95388C11.1785 8.75602 11.743 8.65085 12.313 8.64288C13.264 8.59988 13.531 8.58788 15.968 8.58788C18.405 8.58788 18.655 8.58788 19.622 8.64288C20.1924 8.64974 20.7573 8.75495 21.292 8.95388C21.6809 9.10416 22.0341 9.33408 22.3289 9.62891C22.6238 9.92374 22.8537 10.277 23.004 10.6659C23.2005 11.2008 23.3056 11.765 23.315 12.3349C23.358 13.2859 23.369 13.5529 23.369 15.9899C23.369 18.4259 23.369 18.6879 23.326 19.6439H23.315V19.6429Z" fill="white"/>
</svg>

<svg width="32" height="32" fill="none" xmlns="http://www.w3.org/2000/svg"><circle cx="16" cy="16" r="16" fill="#E33A5E"/><path d="M15.999 11.377a4.624 4.624 0 1 0 0 9.249 4.624 4.624 0 0 0 0-9.25Zm0 7.627a3.004 3.004 0 1 1 0-6.008 3.004 3.004 0 0 1 0 6.008ZM20.806 12.285a1.078 1.078 0 1 0 0-2.156 1.078 1.078 0 0 0 0 2.156Z" fill="#fff"/><path d="M24.533 10.11A4.605 4.605 0 0 0 21.9 7.48a6.607 6.607 0 0 0-2.186-.42c-.963-.042-1.268-.054-3.71-.054s-2.755 0-3.71.054a6.553 6.553 0 0 0-2.184.42 4.6 4.6 0 0 0-2.633 2.632 6.585 6.585 0 0 0-.42 2.186c-.042.962-.055 1.267-.055 3.71 0 2.442 0 2.753.056 3.71.015.748.156 1.486.419 2.187a4.61 4.61 0 0 0 2.634 2.632 6.583 6.583 0 0 0 2.185.45c.963.042 1.268.055 3.71.055s2.755 0 3.71-.055a6.616 6.616 0 0 0 2.186-.42 4.613 4.613 0 0 0 2.633-2.632c.263-.7.404-1.438.419-2.186.043-.962.056-1.267.056-3.71s0-2.753-.056-3.71a6.583 6.583 0 0 0-.421-2.217Zm-1.218 9.533a5.046 5.046 0 0 1-.311 1.688 2.987 2.987 0 0 1-1.712 1.71c-.535.2-1.1.305-1.67.312-.95.044-1.218.055-3.654.055-2.438 0-2.687 0-3.655-.055a4.96 4.96 0 0 1-1.669-.311 2.983 2.983 0 0 1-1.719-1.711 5.08 5.08 0 0 1-.311-1.67c-.043-.95-.053-1.217-.053-3.653 0-2.437 0-2.686.053-3.655a5.038 5.038 0 0 1 .311-1.687c.305-.79.93-1.41 1.719-1.712a5.01 5.01 0 0 1 1.669-.311c.951-.043 1.218-.055 3.655-.055s2.687 0 3.654.055a4.96 4.96 0 0 1 1.67.31 2.99 2.99 0 0 1 1.712 1.713c.197.535.302 1.099.311 1.669.043.95.054 1.218.054 3.655 0 2.436 0 2.698-.043 3.654h-.011v-.001Z" fill="#fff"/></svg>
